icons/night/swift.svg

<svg width="16" height="16" viewBox="0 0 16 16" fill="none" xmlns="http://www.w3.org/2000/svg">
<path d="M12.92 10.05L12.98 9.85001C13.69 7.01001 11.98 3.64001 8.98 1.85001C9.62191 2.64605 10.078 3.57536 10.315 4.57013C10.552 5.5649 10.564 6.60003 10.35 7.60001C10.35 7.77001 10.25 7.93001 10.19 8.08001L9.93 7.93001C7.71685 6.48729 5.66508 4.81101 3.81 2.93001C4.92869 4.57641 6.17236 6.13434 7.53 7.59001C5.66227 6.40067 3.89323 5.06303 2.24 3.59001C2.45489 3.94072 2.69555 4.27497 2.96 4.59001C4.53487 6.68897 6.35814 8.58947 8.39 10.25C7.48592 10.7349 6.47592 10.9887 5.45 10.9887C4.42408 10.9887 3.41408 10.7349 2.51 10.25C1.97642 9.99996 1.47035 9.69498 1 9.34001C1.96841 10.8793 3.38042 12.0891 5.05 12.81C5.92402 13.2288 6.88084 13.4462 7.85 13.4462C8.81916 13.4462 9.77598 13.2288 10.65 12.81L10.83 12.7C11.0653 12.5343 11.3336 12.4213 11.6166 12.3688C11.8996 12.3163 12.1906 12.3255 12.4697 12.3957C12.7488 12.466 13.0095 12.5956 13.2339 12.7759C13.4583 12.9561 13.6412 13.1826 13.77 13.44C14 13.82 14.4 11.87 12.92 10.05Z" fill="#E0AF68"/>
</svg>

<svg xmlns="http://www.w3.org/2000/svg" data-name="Calque 1" viewBox="0 0 16 16"><path
    d="m12.92 10.05.06-.2c.71-2.84-1-6.21-4-8a6.87 6.87 0 0 1 1.37 5.75c0 .17-.1.33-.16.48l-.26-.15a36.89 36.89 0 0 1-6.12-5 38.82 38.82 0 0 0 3.72 4.66 41.29 41.29 0 0 1-5.29-4 8.3 8.3 0 0 0 .72 1 32.5 32.5 0 0 0 5.43 5.66 6.22 6.22 0 0 1-5.88 0A8.48 8.48 0 0 1 1 9.34a9 9 0 0 0 4.05 3.47 6.48 6.48 0 0 0 5.6 0l.18-.11a2 2 0 0 1 2.94.74c.23.38.63-1.57-.85-3.39Z"
    style="fill:#e0af68"
  /></svg>
